X: 40743
T: Toss The Fiddles
R: polka
M: 2/4
K: Dmajor
|:AG|F2 EF|DBBG|AdcA|G2 AG|F2 EF|DBBG|Addc|1 d2:|2 d3||
A||FABd|c3 A|ABBd|c3 A|Addc|d2 e/f/g|fddc|ABBA|
FABd|c3 A|ABBd|c3 A|Addg|gfae|eddc|d2||

